X:2149
T:Little Alexander sitting in the sand 
C:Traditional
O:Isle of Man
Z:Clague collection
N:Little Alexander sitting in the sand, Weeping and smiling a fair young man.
B:Kiaull Vannin #149 
M:2/4 
L:1/4
Q:80 
K:G 
G/G/ G/A/|B G|A F|G2:||D G|B D|G B|d c|
B A|G2|D G|B D|G B|d d|c F|G2|| 

